X:1520
T:Devil Among The Tailors,The JMT044
T:Devil's Dream. JMT044
O:england
M:4/4
L:1/8
S:J.Moore,Tyneside,1841.(32)
R:Reel
A:Northumbria
H:184
K:A
e2|(eaga) (eaga)|(eaga) fedc|dfBf dfBf|dfba agfe| (eaga) (eaga)|(eaga)
fedc|defg aefd|c2A2A2:|
|:ed|ceAe ceAe|ceag fedc|dfBf dfBf|dfba gfec|ceAe ceAe|ceag fedc|defa g
efd|c2A2A2:|]


